assets/images/lightbulb.svg

<svg width="30" height="30" viewBox="0 0 50 50" fill="none" xmlns="http://www.w3.org/2000/svg">
<g clip-path="url(#clip0)">
<path d="M42.5332 18.2249C42.5332 8.63907 34.8048 0.854109 25.2253 0.733698C15.642 0.613288 7.6754 8.28302 7.47101 17.8428C7.34962 23.5209 9.94151 28.5993 14.0413 31.8788V34.3037C14.0413 36.7389 16.0199 38.7129 18.4608 38.7129H31.5393C33.9801 38.7129 35.9587 36.7388 35.9587 34.3037V31.8788C39.9664 28.6731 42.5332 23.7483 42.5332 18.2249Z" fill="#FFD88F"/>
<path d="M25.2254 0.733705C24.4915 0.724525 23.7672 0.761439 23.0551 0.840931C31.8152 1.81378 38.627 9.2255 38.627 18.2248C38.627 23.7483 36.0602 28.6729 32.0526 31.8788V34.3037C32.0526 36.7389 30.074 38.713 27.6332 38.713H31.5394C33.9802 38.713 35.9589 36.7389 35.9589 34.3037V31.8788C39.9665 28.673 42.5333 23.7483 42.5333 18.2248C42.5332 8.63907 34.8048 0.854115 25.2254 0.733705Z" fill="#FFC963"/>
<path d="M26.8378 49.2675H23.1624C21.5179 49.2675 20.1849 47.9345 20.1849 46.29V41.7208H29.8152V46.29C29.8152 47.9345 28.4821 49.2675 26.8378 49.2675Z" fill="#59A1A5"/>
<path d="M25.9089 41.7208V46.29C25.9089 47.8957 24.6377 49.2038 23.0469 49.2645C23.0853 49.266 23.1235 49.2675 23.1623 49.2675H26.8377C28.4821 49.2675 29.8151 47.9345 29.8151 46.29V41.7208H25.9089Z" fill="#419296"/>
<path d="M29.8568 45.3166H20.1432C18.8325 45.3166 17.7699 44.254 17.7699 42.9433V38.6976H32.2302V42.9433C32.2302 44.254 31.1676 45.3166 29.8568 45.3166Z" fill="#B5E8E0"/>
<path d="M28.3239 38.6976V42.9433C28.3239 44.254 27.2613 45.3166 25.9506 45.3166H29.8568C31.1676 45.3166 32.2301 44.254 32.2301 42.9433V38.6976H28.3239Z" fill="#97DBD1"/>
<path d="M37.9918 5.41446C34.5944 1.98448 30.0638 0.0622186 25.2345 0.0015741C21.9181 -0.0398321 18.6542 0.824034 15.7933 2.50069C15.4442 2.70528 15.3271 3.15391 15.5316 3.50294C15.7361 3.85196 16.1849 3.96905 16.5339 3.76456C19.1648 2.22267 22.1668 1.42882 25.216 1.46632C29.6584 1.52218 33.826 3.29044 36.9511 6.44542C40.0783 9.60264 41.8006 13.7861 41.8006 18.2251C41.8006 23.3365 39.5045 28.1047 35.5012 31.3071C35.3274 31.4461 35.2263 31.6565 35.2263 31.879V34.3039C35.2263 36.2209 33.7472 37.7991 31.8674 37.9653H25.6582V18.9987H32.4345C32.8391 18.9987 33.1669 18.6709 33.1669 18.2663C33.1669 17.8617 32.8391 17.5339 32.4345 17.5339H17.5654C17.1608 17.5339 16.833 17.8617 16.833 18.2663C16.833 18.6709 17.1608 18.9987 17.5654 18.9987H24.1935V37.9653H18.1325C16.2527 37.799 14.7736 36.2209 14.7736 34.3039V31.879C14.7736 31.6565 14.6725 31.446 14.4987 31.3071C10.3854 28.0166 8.09081 23.1147 8.20312 17.8585C8.30029 13.3169 10.2035 9.09698 13.5622 5.97588C13.8585 5.70059 13.8755 5.23712 13.6002 4.94073C13.325 4.64454 12.8615 4.62735 12.565 4.90274C8.91347 8.296 6.84433 12.8859 6.73867 17.8272C6.61894 23.4248 9.00947 28.6527 13.3088 32.2267V34.3039C13.3088 36.6463 14.887 38.6263 17.0375 39.2444V41.0727C16.016 41.103 15.929 42.5055 17.0375 42.5376C16.9568 44.1072 17.8603 45.6076 19.4524 45.9708C19.3581 48.1005 20.9698 50.0001 23.1623 50.0001H26.8378C29.0396 50.0001 30.628 48.1012 30.5477 45.9708C32.138 45.608 33.0438 44.1029 32.9626 42.5376C34.2041 42.5376 34.2285 41.0727 32.9626 41.0727V39.2444C35.1131 38.6263 36.6913 36.6463 36.6913 34.3039V32.2266C40.8742 28.7485 43.2656 23.6658 43.2656 18.225C43.2655 13.3973 41.3926 8.84776 37.9918 5.41446ZM31.4977 42.9433C31.4977 43.8481 30.7615 44.5842 29.8567 44.5842H28.6049C27.6579 44.5842 27.6579 46.0491 28.6049 46.0491H29.0828C29.1671 47.3557 28.1821 48.5351 26.8378 48.5351H23.1623C21.818 48.5351 20.833 47.3557 20.9173 46.0491H24.7058C25.6527 46.0491 25.6527 44.5842 24.7058 44.5842H20.1433C19.0278 44.5842 18.3943 43.5543 18.5023 42.5375H31.4977V42.9433ZM18.5023 41.0726V39.4455H31.4977V41.0726H18.5023Z" fill="black"/>
<path d="M4.98074 18.3639C4.98074 17.9593 4.65291 17.6315 4.24832 17.6315H0.73269C-0.214282 17.6315 -0.214282 19.0963 0.73269 19.0963H4.24832C4.65291 19.0963 4.98074 18.7684 4.98074 18.3639Z" fill="black"/>
<path d="M5.58539 23.536C5.4808 23.1452 5.07914 22.9129 4.68832 23.0181L1.29252 23.9279C0.389881 24.1696 0.79701 25.5779 1.67172 25.3428L5.06752 24.4329C5.45824 24.3283 5.69008 23.9267 5.58539 23.536Z" fill="black"/>
<path d="M6.50793 28.107L3.4632 29.8649C2.66261 30.3272 3.38888 31.5992 4.19562 31.1334L7.24035 29.3756C8.06046 28.9021 7.32795 27.6335 6.50793 28.107Z" fill="black"/>
<path d="M1.29253 12.7724L4.68833 13.6822C5.57085 13.9194 5.97231 12.5097 5.06753 12.2674L1.67172 11.3575C0.757076 11.1113 0.377877 12.5275 1.29253 12.7724Z" fill="black"/>
<path d="M3.46324 6.83535L6.50797 8.59316C7.30074 9.05049 8.05865 7.79707 7.24039 7.32461L4.19566 5.5668C3.37535 5.09356 2.64322 6.36182 3.46324 6.83535Z" fill="black"/>
<path d="M49.2675 17.6315H45.7519C44.8049 17.6315 44.8049 19.0963 45.7519 19.0963H49.2675C50.2145 19.0963 50.2145 17.6315 49.2675 17.6315Z" fill="black"/>
<path d="M48.7075 23.9279L45.3117 23.0181C44.3971 22.7719 44.0179 24.188 44.9325 24.4329L48.3283 25.3428C49.211 25.5801 49.6123 24.1702 48.7075 23.9279Z" fill="black"/>
<path d="M46.5368 29.8648L43.492 28.107C42.6718 27.6336 41.9396 28.902 42.7596 29.3756L45.8043 31.1334C46.5971 31.5908 47.355 30.3374 46.5368 29.8648Z" fill="black"/>
<path d="M44.4147 13.1645C44.5114 13.5258 44.953 13.7787 45.3117 13.6823L48.7075 12.7725C49.6222 12.5276 49.2431 11.1114 48.3283 11.3576L44.9325 12.2675C44.5418 12.372 44.31 12.7737 44.4147 13.1645Z" fill="black"/>
<path d="M43.1265 8.69141C43.2507 8.69141 43.3767 8.65977 43.4921 8.59317L46.5368 6.83536C47.3569 6.36182 46.6246 5.09346 45.8044 5.5668L42.7596 7.32461C42.1044 7.70293 42.4199 8.69141 43.1265 8.69141Z" fill="black"/>
</g>
<defs>
<clipPath id="clip0">
<rect width="50" height="50" fill="white"/>
</clipPath>
</defs>
</svg>

<svg xmlns="http://www.w3.org/2000/svg" width="30" height="30" fill="none" viewBox="0 0 50 50"><g clip-path="url(#a)"><path fill="#ffd88f" d="M42.533 18.225c0-9.586-7.728-17.37-17.308-17.491-9.583-.12-17.55 7.549-17.754 17.109-.121 5.678 2.47 10.756 6.57 14.036v2.425a4.414 4.414 0 0 0 4.42 4.409h13.078a4.415 4.415 0 0 0 4.42-4.41V31.88c4.007-3.206 6.574-8.13 6.574-13.654"/><path fill="#ffc963" d="M25.225.734Q24.123.72 23.055.84c8.76.973 15.572 8.385 15.572 17.384 0 5.523-2.567 10.448-6.574 13.654v2.425a4.414 4.414 0 0 1-4.42 4.409h3.906a4.415 4.415 0 0 0 4.42-4.41V31.88c4.008-3.206 6.574-8.13 6.574-13.654 0-9.586-7.728-17.37-17.308-17.491"/><path fill="#59a1a5" d="M26.838 49.268h-3.676a2.977 2.977 0 0 1-2.977-2.978v-4.57h9.63v4.57a2.977 2.977 0 0 1-2.977 2.977"/><path fill="#419296" d="M25.909 41.72v4.57a2.977 2.977 0 0 1-2.862 2.974q.057.003.115.003h3.676a2.977 2.977 0 0 0 2.977-2.977v-4.57z"/><path fill="#b5e8e0" d="M29.857 45.317h-9.714a2.373 2.373 0 0 1-2.373-2.374v-4.245h14.46v4.245a2.373 2.373 0 0 1-2.373 2.374"/><path fill="#97dbd1" d="M28.324 38.698v4.245a2.373 2.373 0 0 1-2.373 2.374h3.906a2.373 2.373 0 0 0 2.373-2.374v-4.245z"/><path fill="#000" d="M37.992 5.414A18.17 18.17 0 0 0 25.235.002 18.2 18.2 0 0 0 15.793 2.5a.732.732 0 1 0 .74 1.264 16.76 16.76 0 0 1 8.683-2.299 16.72 16.72 0 0 1 11.735 4.98 16.64 16.64 0 0 1 4.85 11.78c0 5.11-2.297 9.879-6.3 13.081a.73.73 0 0 0-.275.572v2.425a3.685 3.685 0 0 1-3.359 3.661h-6.209V19h6.776a.732.732 0 1 0 0-1.465H17.566a.732.732 0 1 0 0 1.465h6.628v18.966h-6.06a3.685 3.685 0 0 1-3.36-3.661V31.88a.73.73 0 0 0-.274-.572c-4.114-3.29-6.408-8.192-6.296-13.448.097-4.542 2-8.762 5.36-11.883a.733.733 0 0 0-.998-1.073c-3.652 3.393-5.72 7.983-5.826 12.924-.12 5.598 2.27 10.826 6.57 14.4v2.077c0 2.342 1.578 4.322 3.729 4.94v1.829c-1.022.03-1.109 1.432 0 1.465-.081 1.57.822 3.07 2.414 3.433-.094 2.13 1.518 4.03 3.71 4.03h3.676c2.202 0 3.79-1.9 3.71-4.03 1.59-.363 2.496-1.868 2.415-3.433 1.241 0 1.265-1.465 0-1.465v-1.829c2.15-.618 3.728-2.598 3.728-4.94v-2.077a18.13 18.13 0 0 0 6.575-14.002c0-4.828-1.873-9.377-5.274-12.81m-6.494 37.53c0 .904-.736 1.64-1.641 1.64h-1.252c-.947 0-.947 1.465 0 1.465h.478c.084 1.307-.9 2.486-2.245 2.486h-3.676c-1.344 0-2.329-1.18-2.245-2.486h3.789c.947 0 .947-1.465 0-1.465h-4.563c-1.115 0-1.749-1.03-1.64-2.047h12.995zm-12.996-1.871v-1.627h12.996v1.627zM4.98 18.364a.73.73 0 0 0-.732-.733H.733c-.947 0-.947 1.465 0 1.465h3.515a.73.73 0 0 0 .733-.732m.604 5.172a.73.73 0 0 0-.897-.518l-3.395.91c-.903.242-.496 1.65.379 1.415l3.396-.91a.73.73 0 0 0 .517-.897m.923 4.571-3.045 1.758c-.8.462-.074 1.734.733 1.268l3.044-1.757c.82-.474.088-1.742-.732-1.269M1.293 12.772l3.395.91c.883.237 1.284-1.172.38-1.415l-3.396-.91c-.915-.246-1.294 1.17-.38 1.415m2.171-5.937 3.045 1.758c.793.457 1.55-.796.732-1.268L4.196 5.567c-.82-.473-1.553.795-.733 1.268m45.805 10.797h-3.516c-.947 0-.947 1.464 0 1.464h3.515c.947 0 .947-1.465 0-1.465m-.559 6.297-3.396-.91c-.915-.246-1.294 1.17-.38 1.415l3.396.91c.883.237 1.284-1.173.38-1.415m-2.171 5.937-3.045-1.758c-.82-.473-1.552.795-.732 1.269l3.044 1.757c.793.458 1.551-.796.733-1.268m-2.122-16.7c.096.36.538.614.897.517l3.396-.91c.914-.244.535-1.66-.38-1.414l-3.396.91a.73.73 0 0 0-.517.896m-1.288-4.473a.73.73 0 0 0 .365-.098l3.045-1.758c.82-.473.088-1.742-.733-1.268L42.76 7.325c-.656.378-.34 1.366.367 1.366"/></g><defs><clipPath id="a"><path fill="#fff" d="M0 0h50v50H0z"/></clipPath></defs></svg>
